!!!OTL: Tian le di zhu ku le wo
!!!ARE: Asia, China,ÿGuangxi, Tiandong
!! II, 520
!!!SCT: C1524
!!!YEM: Copyright 1995, estate of Helmut Schaffrath.
**kern
*ICvox
*Ivox
!! 2+3 metric grouping
!! Mixed meters:  4/8; 5/8
*M4/8
*k[f#]
*G:
{8a
4.b
=1
8a
16g
16e
4d
=2
8b
8a
4b
=3
2a}
=4
{8g
16e
16g
8a
8g
=5
4a
8g
8a
=6
8e
4.d
=7
2d}
=8
*M5/8
{8e
8g
8g
16e
16g
8a
=9
4.g
8a
8g
=10
8g
8e
4.d
=11
8g
8e
[4.d
=12
8d]
4d
4r}
==
!!!AGN: Shange, Zheyuan shange
!!!AMT: irregular
!!!AIN: vox
!!!EED: Helmut Schaffrath
!!!EEV: 1.0
*-
!!!ONB: Tied note syntax fixed by Craig Sapp, 2004/05/03/
